build/Karasa-Jaga/scalable/actions/media-eq-symbolic.svg

<svg height="16" width="16" xmlns="http://www.w3.org/2000/svg"><path d="m10.5 10h5c.277 0 .5-.2229999.5-.4999999v-1c0-.277-.223-.5-.5-.5h-5c-.277 0-.5.223-.5.5v1c0 .277.223.4999999.5.4999999zm-5-3.9999999h5c.277 0 .5-.223.5-.5v-1c0-.277-.223-.5-.5-.5h-5c-.277 0-.5.223-.5.5v1c0 .277.223.5.5.5zm-5 5.9999999h5c.277 0 .5-.223.5-.5v-1c0-.277-.223-.5-.5-.5h-5c-.277 0-.5.223-.5.5v1c0 .277.223.5.5.5zm8.5 2v-11.9999999c0-.554-.446-1-1-1s-1 .446-1 1v11.9999999c0 .554.446 1 1 1s1-.446 1-1zm5 0v-11.9999999c0-.554-.446-1-1-1s-1 .446-1 1v11.9999999c0 .554.446 1 1 1s1-.446 1-1zm-10 0v-11.9999999c0-.554-.446-1-1-1s-1 .446-1 1v11.9999999c0 .554.446 1 1 1s1-.446 1-1z" fill="#bebebe"/></svg>

<?xml version="1.0" encoding="UTF-8" standalone="no"?>
<!-- Created with Inkscape (http://www.inkscape.org/) -->

<svg
   xmlns:dc="http://purl.org/dc/elements/1.1/"
   xmlns:cc="http://creativecommons.org/ns#"
   xmlns:rdf="http://www.w3.org/1999/02/22-rdf-syntax-ns#"
   xmlns:svg="http://www.w3.org/2000/svg"
   xmlns="http://www.w3.org/2000/svg"
   xmlns:sodipodi="http://sodipodi.sourceforge.net/DTD/sodipodi-0.dtd"
   xmlns:inkscape="http://www.inkscape.org/namespaces/inkscape"
   version="1.1"
   width="16"
   height="16"
   id="svg4112"
   inkscape:version="0.48.3.1 r9886"
   sodipodi:docname="media-eq-symbolic.svg">
  <sodipodi:namedview
     pagecolor="#ffffff"
     bordercolor="#666666"
     borderopacity="1"
     objecttolerance="10"
     gridtolerance="10"
     guidetolerance="10"
     inkscape:pageopacity="0"
     inkscape:pageshadow="2"
     inkscape:window-width="1366"
     inkscape:window-height="696"
     id="namedview7"
     showgrid="false"
     inkscape:zoom="14.75"
     inkscape:cx="17.791574"
     inkscape:cy="2.3923374"
     inkscape:window-x="0"
     inkscape:window-y="0"
     inkscape:window-maximized="1"
     inkscape:current-layer="svg4112" />
  <defs
     id="defs4114" />
  <metadata
     id="metadata4117">
    <rdf:RDF>
      <cc:Work
         rdf:about="">
        <dc:format>image/svg+xml</dc:format>
        <dc:type
           rdf:resource="http://purl.org/dc/dcmitype/StillImage" />
        <dc:title />
      </cc:Work>
    </rdf:RDF>
  </metadata>
  <path
     style="color:#bebebe;fill:#bebebe;fill-opacity:1;fill-rule:nonzero;stroke:none;stroke-width:1;marker:none;visibility:visible;display:inline;overflow:visible;enable-background:accumulate"
     id="rect3014-6"
     inkscape:connector-curvature="0"
     d="m 10.5,10 5,0 C 15.777,10 16,9.7770001 16,9.5000001 l 0,-1 c 0,-0.277 -0.223,-0.5 -0.5,-0.5 l -5,0 c -0.277,0 -0.5,0.223 -0.5,0.5 l 0,1 C 10,9.7770001 10.223,10 10.5,10 z m -5,-3.9999999 5,0 c 0.277,0 0.5,-0.223 0.5,-0.5 l 0,-1 c 0,-0.277 -0.223,-0.5 -0.5,-0.5 l -5,0 c -0.277,0 -0.5,0.223 -0.5,0.5 l 0,1 c 0,0.277 0.223,0.5 0.5,0.5 z M 0.5,12 l 5,0 C 5.777,12 6,11.777 6,11.5 l 0,-1 C 6,10.223 5.777,10 5.5,10 l -5,0 C 0.223,10 0,10.223 0,10.5 l 0,1 C 0,11.777 0.223,12 0.5,12 z M 9,14 9,2.0000001 c 0,-0.554 -0.446,-1 -1,-1 -0.554,0 -1,0.446 -1,1 L 7,14 c 0,0.554 0.446,1 1,1 0.554,0 1,-0.446 1,-1 z m 5,0 0,-11.9999999 c 0,-0.554 -0.446,-1 -1,-1 -0.554,0 -1,0.446 -1,1 L 12,14 c 0,0.554 0.446,1 1,1 0.554,0 1,-0.446 1,-1 z M 4,14 4,2.0000001 c 0,-0.554 -0.446,-1 -1,-1 -0.554,0 -1,0.446 -1,1 L 2,14 c 0,0.554 0.446,1 1,1 0.554,0 1,-0.446 1,-1 z" />
</svg>
